X: 1238
T: Banjo Boy
B: australian traditional tunes wiki
M:4/4
L:1/8
Q: 1/4=100
K:D
V:1 
|:FG|"D" A2 FG A2 de|f2 dB A3d|"A7" e2 cB A3 d|"D" f2 dB A2 FG|
"D" A2 FG A2 de|f2 dB A3d|"A7" e2 cB A2 ce|"D" d6:|
|:dd|"G" Bc d2 ed cB|"D" B(A A)F A2d2|"E7" cc ee f(e e)d|
"A7" cd cd e2 FG|"D" A2 FG A2 de|f2 dB A3d|"A7" e2 cB A2 ce|"D" d6:|
% abcbook-tune_id 6342d53ac04740e740e0a292


% abcbook-boost 0
% abcbook-tablature 
% abcbook-transpose 
% abcbook-lastupdated 1665324355371
% abcbook-soundfonts 
% abcbook-repeats 1
% NFF Book 2013

